!!!COM: Bach, Johann Sebastian
!!!OPR: Joh. Seb. Bachs vierstimmige Choralgesänge
!!!XEN: Four-part Chorales
!!!OTL: Chorale 110. Jesus Christus, unser Heiland
!!!SCT: BWV 363
!!!SCA: Thematisch-systematisches Verzeichnis der musikalischen Werke Johann Sebastian Bach: Bach-Werke-Verzeichnis (Schmieder)
!!!YOR: Bach Gesellschaft Edition xxxix
!!!ENC: Steven Rasmussen
!!!CDT: 1685/3//-1750/7/28/
!!!OCY: Deutschland
!!!YEC: Copyright (c) 1994, 2000 Center for Computer Assisted Research in the Humanities
!!!YEM: Rights to all derivative editions reserved
!!!YEN: United States of America
**kern	**silbe	**kern	**silbe	**kern	**kern	**silbe
*I:[BASSO]	*I:[BASSO]	*I:[TENORE]	*I:[TENORE]	*I:[ALTO]	*I:[SOPRANO]	*I:[SOPRANO]
*clefF4	*	*clefGv2	*	*clefG2	*clefG2	*
*k[f#]	*	*k[f#]	*	*k[f#]	*k[f#]	*
*e:	*	*e:	*	*e:	*e:	*
*M4/4	*	*M4/4	*	*M4/4	*M4/4	*
=1-	=1-	=1-	=1-	=1-	=1-	=1-
4.E	.	4G	.	4B	4e	Je-
.	.	4F#	.	4B	4b	-sus
8D	.	.	.	.	.	.
2C	.	4G	.	8eL	4b	Chri-
.	.	.	.	8d#J	.	.
.	.	8F#L	.	4e	4a	.
.	.	8EJ	.	.	.	.
=2	=2	=2	=2	=2	=2	=2
8BBL	.	4F#	.	4d#	4b	.
8AJ	.	.	.	.	.	.
8GL	.	8BL	.	8eL	8eL	-stus,
8F#J	.	8AJ	.	8d#J	8f#J	.
8EL	.	4B	.	4e	4g	un-
8DJ	.	.	.	.	.	.
8CL	.	8eL	.	4e	4g	-ser
8BBJ	.	8d#J?	.	.	.	.
=3	=3	=3	=3	=3	=3	=3
4AA#	.	4c#	.	4.e	4g	Hei-
4BB	.	8F#L	.	.	4f#	.
.	.	16BL	.	8d#	.	.
.	.	16AJJ	.	.	.	.
2EE;	.	2G;	.	2B;	2e;	-land,
=4	=4	=4	=4	=4	=4	=4
8EL	.	4B	.	4e	4g	der
8DJ	.	.	.	.	.	.
4C	.	4c	.	4e	4g	von
4BB	.	4G	.	4d	4g	uns
4C	.	4G	.	4c	4e	den
=5	=5	=5	=5	=5	=5	=5
8CL	.	8GL	.	4d	4g	Got-
8BBJ	.	16AL	.	.	.	.
.	.	16BJJ	.	.	.	.
4AA	.	4c	.	8eL	4a	-tes-
.	.	.	.	8f#J	.	.
4GG	.	8dL	.	4.g	4b	-zorn
.	.	16eL	.	.	.	.
.	.	16dJJ	.	.	.	.
4AA	.	16cLL	.	.	4a	.
.	.	16BJ	.	.	.	.
.	.	8cJ	.	[8f#	.	.
=6	=6	=6	=6	=6	=6	=6
2BB	.	[4B	.	8f#]	4g	.
.	.	.	.	4e	.	.
.	.	8.BL]	.	.	4f#	.
.	.	.	.	8d#	.	.
.	.	16AJk	.	.	.	.
2E;	.	2G;	.	2B;	2e;	wand,
=7	=7	=7	=7	=7	=7	=7
4E	.	8BL	.	4e	4g	durch
.	.	8cJ	.	.	.	.
4BB	.	4d	.	8gL	4g	das
.	.	.	.	8f#J	.	.
8CL	.	4c	.	4e	4g	bitt-
8DJ	.	.	.	.	.	.
8EL	.	4G	.	4c	4e	-re
8DJ	.	.	.	.	.	.
=8	=8	=8	=8	=8	=8	=8
8CL	.	4G	.	8eL	4g	Lei-
8BBJ	.	.	.	8dJ	.	.
4AA	.	4c	.	8eL	4a	.
.	.	.	.	8f#J	.	.
4GG	.	4d	.	4.g	4b	.
4D	.	8.dL	.	.	4a	-den
.	.	.	.	8f#	.	.
.	.	16cJk	.	.	.	.
=9	=9	=9	=9	=9	=9	=9
2GG;	.	2B;	.	2d;	2g;	sein
4r	.	4r	.	4r	4r	.
4BB	.	4d	.	8gL	4dd	half
.	.	.	.	8fnJ	.	.
=10	=10	=10	=10	=10	=10	=10
4C	.	8cL	.	4e	4ee	er
.	.	8BJ	.	.	.	.
4D	.	4A	.	4f#	8ddL	uns
.	.	.	.	.	8ccJ	.
4.E	.	8GL	.	8gL	8bL	aus
.	.	8cJ	.	8d#J	8aJ	.
.	.	8BL	.	8eL	8gL	der
8F#	.	8AJ	.	8dnJ	8aJ	.
=11	=11	=11	=11	=11	=11	=11
8GL	Höl-	8GL	Höl-	8d	4b	Höl-
8BB	.	8d	.	4g	.	.
8C#	.	8e	.	.	4a	.
8D#J	.	8BJ	.	4f#	.	.
8EL	.	4B	-len-	.	4g	.
8GGJ	.	.	.	4e	.	.
8AAL	-len-	8cL	.	.	4f#	-len-
8BBJ	.	16BL	.	8d#	.	.
.	.	16AJJ	.	.	.	.
=12	=12	=12	=12	=12	=12	=12
2.EE;	-pein.	2.G#;	-pein.	2.B;	2.e;	-pein.
==|!	==|!	==|!	==|!	==|!	==|!	==|!
!!!RNB1: * D4n? -- BG
*-	*-	*-	*-	*-	*-	*-
!!!RWG: Key is interpreted using the Humdrum key tool.
!!!URL-pdf: https://s9.imslp.org/files/imglnks/usimg/6/6b/IMSLP24489-PMLP09471-CCARH_Bach_Chorales.pdf#page=77 Musedata edition
!!!URL-pdf: https://s9.imslp.org/files/imglnks/usimg/7/7a/IMSLP04155-Bach_-_BGA_253-438.pdf#page=60 	Bach-Gesellschaft Ausgabe, Band 39 (pp.175-276) Leipzig: Breitkopf und Härtel, 1892. Plate B.W. XXXIX.
!!!END: 1994/07/11
!!!EMD: Converted from MuseData to Humdrum Dec 19, 2000, by Andreas Kornstaedt using muse2kern.
!!!EED: Craig Stuart Sapp
!!!EEV: 2024/03/31
!!!filter-keyboard: satb2gs
!!!title: @{OTL} (@{SCT})
